!!!!SEGMENT: pl-wtm--a-17-838_stojowski-zygmunt--trois-intermedes-op-4-no-1.krn
!!!cenid: 18xx:4460
!!!COM: Stojowski, Zygmunt
!!!COM-rismID: pe41019736
!!!CDT: 1870-1946
!!!CNT: Polish
!!!OTL: Trois Intermedes Op. 4/No. 1
!!!PDT: 1891
!!!AGN: Secular
!!!YEC: Copyright 2022 Narodowy Instytut Fryderyka Chopina (https://polishscores.org)
!!!YEM: License CC-BY-4.0 (https://creativecommons.org/licenses/by/4.0)
!!!SMS-siglum: PL-Wtm
!!!SMS-shelfmark: A.17.838
!!!SMS-variant:
!!!SMS-altvar:
!!!SMS-shelfwork: W
!!!NIFC-rismSourceID: 1001188137
!!!NIFC-rismChildID: 1001188137
!!!NIFC-islandoraID: pl-wtm:59076
!!!URL-pdf-islandora: https://repozytorium.nifc.pl/islandora/object/pl-wtm%3A59076/datastream/PDF/view
!!!URL-scan: https://polish.musicsources.pl/pl/lokalizacje/galeria/druki-muzyczne/19661/2 @EN{Scan on Polish Music Sources Website} @PL{Skany w portalu Dziedzictwo Muzyki Polskiej w otwartym dostępie}
!!!IIIF:
!!!ONB-nifc:
!!!AIN: 1 piano
!!!key: G
**kern	**kern	**dynam
*part1	*part1	*part1
*staff2	*staff1	*staff1/2
*group1	*group1	*
*ICklav	*ICklav	*
*Ipiano	*Ipiano	*
*I"PIANO.	*I"PIANO.	*
*I'	*	*
*clefF4	*clefG2	*
*k[f#]	*k[f#]	*
*G:	*G:	*
*M3/4	*M3/4	*
!!LO:TX:a:B:t=Allegretto moderato e con fantasia.
!	!LO:TX:b:i:t=sotto voce	!
!	!LO:TX:a:i:t=quasi flauti	!
4r	(>4d/	.
=1	=1	=1
*	*^	*
8r	4b/)	8re	.
!LO:TX:b:i:t=qusi pizzicati	!	!	!
8D 8GG'/	.	8g 8B'\	.
8r	(4b/	8re	.
!	!	!	!LO:HP:a
8D 8GG'/	.	8g 8B'\	<
8r	4cc/	8re	.
8D 8AA'/	.	8g 8c'\	[[
=2	=2	=2	=2
8r	4dd/)	8re	.
8G 8BB\	.	8g 8d\	.
8r	(4dd/	8re	.
!	!	!	!LO:HP:a
.	.	.	>
!	!LO:TX:b:i:t=slentando	!	!
8G 8BB\	.	8g 8d\	.
8r	4gg/	8re	]
8e 8B 8E\	.	8b 8g\	.
=3	=3	=3	=3
!	!LO:TX:b:i:t=a tempo	!	!
8r	4dd/)	8rc	.
8B 8F# 8BB\	.	8f# 8d\	.
8r	(4dd/	8rc	.
8B 8F# 8BB\	.	8f# 8d\	.
8r	4a/	8rc	.
8E: 8DD:/	.	8f# 8c\	.
=4	=4	=4	=4
8r	2b/)	8re	.
8D 8GG/	.	8g 8B\	.
8r	.	8re	.
8D 8GG/	.	8g 8B\	.
8r	(4d/	8r	.
8D 8FF#/	.	8A#X\	.
!!LO:LB:g=original
=5	=5	=5	=5
8r	4b/)	8re	.
8D 8GG/	.	8g 8B\	.
8r	(4b/	8re	.
!	!	!	!LO:HP:t=poco cresc.
8D 8GG/	.	8g 8B\	<
8r	4cc/	8re	.
8D 8AA/	.	8g 8c\	.
=6	=6	=6	=6
8r	4dd/)	8re	.
8G 8BB\	.	8g 8d\	.
8r	(4dd/	8re	.
!	!	!	!LO:HP:t=dim. e pocissimo rit.
8G 8BB\	.	8g 8d\	>
8r	4gg/	8re	.
8e 8B 8E\	.	8b 8g\	.
=7	=7	=7	=7
8r	4dd/)	8re	.
8B 8F# 8BB\	.	8f# 8d\	.
8r	(4b/	8re	.
8B 8G 8E\	.	8g 8e\	.
8r	4dd/	8re	.
8A#X 8FF#/	.	8f# 8e\	.
=8	=8	=8	=8
!	!LO:TX:b:i:t=a tempo	!	!
8r	2b/)	8re	.
8B 8F# 8BB\	.	8f# 8d\	.
8r	.	8re	.
!	!	!	!LO:DY:a:t=meno %s
8B 8F# 8BB\	.	8f# 8d\	p
8r	(4d/	8r	.
8D 8FF#/	.	8A\	.
!!LO:LB:g=original
=9	=9	=9	=9
8r	4g/)	8rc	.
8BB 8EE/	.	8e 8G\	.
!	!	!	!LO:HP:a
8r	(4g/	8rc	<
8BB 8EE/	.	8e 8G\	.
8r	4a/	8rc	.
8E 8FF#/	.	8e 8A\	[[
=10	=10	=10	=10
8r	4b/)	8re	.
8E 8GG/	.	8e 8B\	.
8r	(4b/	8re	.
!	!	!	!LO:HP:a
.	.	.	>
8E 8GG/	.	8e 8B\	.
8r	4ee/	8re	]
8c 8E 8AA\	.	8f# 8e\	.
=11	=11	=11	=11
8r	4b/)	8rc	.
8E 8GG/	.	8e 8B\	.
8r	(4b/	8rc	.
8FF#/	.	8e 8A\	.
8r	4f#/	8rc	.
8BB 8BBB/	.	8d#X 8A\	.
=12	=12	=12	=12
8r	2g/)	8rc	.
8BB 8EE/	.	8e 8G\	.
8r	.	8rc	.
8BB 8EE/	.	8e 8G\	.
8r	(4B/	8r	.
8D#X 8FF#/	.	8A\	.
!!LO:LB:g=original
=13	=13	=13	=13
8r	4g/)	8rc	.
8BB 8EE/	.	8e 8G\	.
8r	(4g/	8rc	.
!	!	!	!LO:HP:a
.	.	.	<
8BB 8EE/	.	8e 8G\	.
8r	4a/	8rc	.
.	.	.	[
8D 8FF#/	.	8dn 8A\	.
=14	=14	=14	=14
8r	4b/)	8rc	.
8G 8D 8GG/	.	8g 8d 8B\	.
!	!	!	!LO:HP:a
8r	4b/	8re	>
!	!LO:TX:b:i:t=rit.	!	!
8G 8D 8GG/	.	8g 8d 8B\	.
8r	(4gg/	8re	]
8G 8EE/	.	8b 8g\	.
=15	=15	=15	=15
8r	4a/)	8rc	.
!	!	!LO:TX:b:i:t=a tempo	!
8E 8CC/	.	8g 8A\	.
8r	(4a/	8rc	.
8E-X 8CC/	.	8g 8A\	.
8r	4b/	8rc	.
8D 8DD/	.	8f# 8c\	.
=16	=16	=16	=16
8r	2g/)	8rc	.
8D 8GG/	.	8d 8B\	.
8r	.	8rc	.
8D 8GG/	.	8d 8B\	.
4GGG/	4r	4ryy	.
!!LO:PB:g=original
=17||	=17||	=17||	=17||
!!LO:TX:a:B:t=Animato.
!	!	!	!LO:DY:t=%s leggiero
8r	4g/	8r	p
8GL 8E'\	.	8e 8B\	.
8G 8D#X'\	8gL 8f# 8B'>/	4ryy	.
8GJ 8Dn'\	8gJ 8fn 8B'>/	.	.
8r	4g/	8r	.
8G 8C'\	.	8e 8c'\	.
=18	=18	=18	=18
8r	4dd/	8re	.
8GL 8BB\	.	8g 8d\	.
8G 8AA#X\	8ddL 8cc#X 8g 8d/	4ryy	.
8GJ 8AAn\	8ddJ 8ccn 8g 8d/	.	.
8r	4dd/	8re	.
!	!	!	!LO:HP:t=poco cresc.
8G 8GG/	.	8b 8g 8d\	<
=19	=19	=19	=19
8r	4aa/	8rf	.
8AL 8FF#\	.	8dd 8a\	.
8G#X 8FFn\	8aaL 8gg#X 8dd 8a/	4ryy	.
8GnJ 8EE\	8aaJ 8ggn 8dd 8a/	.	.
8r	4aa/	8rf	.
8G 8EE-X/	.	8gg 8cc#X 8a\	.
!!LO:LB:g=original
=20	=20	=20	=20
!!LO:TX:a:i:t=poco rit.
8F# 8DD/	8aa\	2ryy	mf
!	!	!	!LO:HP:a=2
(8A\L	4ff# 4a\	.	>
8B\)	.	.	.
8c#X\J	8ee 8g\	.	]
8d: 8A: 8D:\	4aa;:/	8dd: 8f#:\	p
8r	.	8rb	.
=21	=21	=21	=21
!!LO:TX:a:i:t=a tempo
8r	4ee/	8rf	pp
8d#XL 8Cn\	.	8dd#X 8g\	.
8dn 8BB\	8eeL 8ddn 8g#X/	8ryy	.
8d-XJ 8BB-X\	8eeJ 8dd-X 8g#/	8ryy	.
8r	4ee/	8rf	.
8c 8AA\	.	8cc 8a\	.
=22	=22	=22	=22
8r	4bb/	8rf	<
8BL 8GG\	.	8ee 8b\	.
8A#X 8FF#\	8bbL 8aa#X 8b/	4ryy	.
8AnJ 8FFn\	8bbJ 8aan 8b/	.	.
8r	4bb/	8rf	.
8G 8EE/	.	8gg 8b\	.
!!LO:LB:g=original
=23	=23	=23	=23
*	*8va	*	*
8r	4fff#/	8rff	.
8F#L 8DD#X/	.	8bb 8ff#\	.
8E#X 8DDn/	8fff#L 8eee#X 8bb 8ff#/	4ryy	.
8EnJ 8CC#X/	8fff#J 8eeen 8bb 8ff#/	.	.
8r	4fff#/	8rff	.
8E 8CCn'/	.	8eeen 8aa#X 8ff#\	.
=24	=24	=24	=24
*^	*	*	*
!	!	!	!	!LO:DY:t=%s rit.
8D#X 8BBB/	8ryy	8fff#/	8rff	f
.	.	.	.	.
*	*	*X8va	*	*
(8F#/L	4.F#\	4ff# 4dd#X 4f#/	4ryy	.
8G#X/)	.	.	.	.
8A#X/J	.	8ff# 8cc#X 8e/	4.ryy	.
4B 4F# 4BB\	4ryy	4ff#: 4b: 4d#X;:/	.	.
*v	*v	*	*	*
=25	=25	=25	=25
!!LO:TX:a:B:t=Tempo I.
8r	4dd#X/	8re	p
8B 8F# 8BB'\	.	8b 8d#X'\	.
8r	(4dd#/	8re	.
!	!	!	!LO:HP:a
8B 8F# 8BB'\	.	8b 8d#'\	<
8r	4ee/	8re	.
8B 8F# 8C#X'\	.	8b 8e'\	[[
!!LO:LB:g=original
=26	=26	=26	=26
8r	4ff#/)	8re	.
8B 8F# 8D#X\	.	8b 8f#\	.
!	!	!	!LO:HP:a
8r	(4ff#/	8re	>
8B 8F# 8D#\	.	8b 8f#\	.
8r	4bb/	8re	]
8g 8B 8E\	.	8cc#X 8b\	.
=27	=27	=27	=27
8r	4ff#/)	8re	.
8B 8F# 8D#X\	.	8b 8f#\	.
8r	(4ff#/	8re	.
!	!	!LO:TX:b:i:t=pocissimo rit.	!
8B 8Gn 8C#X\	.	8b 8e#X\	.
8r	4cc#X/	8re	.
8A#X 8FF#/	.	8a#X 8en\	.
=28	=28	=28	=28
8r	2dd#X/)	8re	.
8B 8F# 8BB'\	.	8b 8d#X\	.
8r	.	8re	.
8B 8F# 8BB\	.	8a# 8d#\	.
8r	(4dd#/	8re	.
8B 8F# 8BB\	.	8g##X 8d#\	.
!!LO:PB:g=original
=29	=29	=29	=29
!	!LO:TX:b:i:t=a tempo	!	!LO:HP:a
8r	4ff#/)	8rg	<
8d#X 8A#X 8D#X\	.	8a#X 8f#\	.
8r	(4ff#/	8rg	.
8d# 8A# 8D#\	.	8a# 8f#\	.
8r	4gg#X/	8rg	[
!	!	!LO:N:n=2:acc=n#	!
8d# 8A# 8E#X\	.	8dd#X 8g#X\	.
=30	=30	=30	=30
8r	4aa#X/)	8rg	.
8d#X 8A#X 8F#\	.	8dd#X 8a#X\	.
8r	(4aa#/	8rg	.
!	!	!	!LO:HP:a
.	.	.	>
8d# 8A# 8F#\	.	8dd# 8a#\	.
8r	4ddd#X/	8rg	]
*clefG2	*	*	*
8b 8d#X 8G#X/	.	8ee#X 8dd#\	.
*clefF4	*	*	*
=31	=31	=31	=31
8r	4aa#X/)	8rg	.
8d#X 8A#X 8F#\	.	8dd#X 8a#X\	.
8r	(4aa#/	8rg	.
8d# 8B 8E#X\	.	8dd# 8g##X\	<
!	!LO:TX:b:i:t=rall.	!	!
8r	4ee#X/	8rg	.
!	!	!LO:N:n=2:acc=n#	!
8c##X 8AA#X\	.	8cc##X 8g#X\	.
.	.	.	[
!!LO:LB:g=original
=32	=32	=32	=32
!LO:N:n=1:acc=n#	!LO:TX:b:t=-:dur=3q:ext=ud:problem:text with extention lines	!	!
(4c#X 4AAn\	2.ff#/)	8rg	.
!	!	!LO:N:n=1:acc=n#	!
.	.	8cc#X 8an\	>
4cn\	.	8rb	.
.	.	8ddn 8an\	.
4B\)	.	8rb	.
.	.	8dd#X 8a\	]
=33	=33	=33	=33
!!LO:TX:a:i:t=a tempo poco animato
!	!	!	!LO:DY:t=%s scherzando
8r	4b/	8re	pp
8G 8Dn 8GG/	.	8g 8B\	.
8r	4bb/	8rg	.
8g 8d 8G\	.	8gg 8b\	.
8r	4cc/	8re	.
8G 8AA/	.	8g 8c\	.
=34	=34	=34	=34
8r	4dd/	8re	.
8G 8BB\	.	8g 8d\	.
8r	4ddd/	8re	.
8g 8B\	.	8gg 8dd\	.
8r	4gg/	8re	.
8e 8B 8E\	.	8b 8g\	.
=35	=35	=35	=35
8r	4dd/	8re	.
8B 8F# 8BB\	.	8f# 8d\	.
8r	4ddd/	8re	.
*clefG2	*	*	*
8b 8f# 8B/	.	8ff# 8dd\	.
8r	4a/	8rc	.
*clefF4	*	*	*
8E: 8DD:/	.	8f# 8c\	.
!!LO:LB:g=original
=36	=36	=36	=36
8r	4b/	8rc	.
8D 8GG/	.	8g 8B\	.
8r	4bb/	8rc	.
8d 8G\	.	8gg 8b\	.
8r	4d/	8r	.
8D 8FF#/	.	8A#X\	.
=37	=37	=37	=37
8r	4b/	8re	.
8D 8GG/	.	8g 8B\	.
8r	4bb/	8re	.
8d 8G\	.	8gg 8b\	<
8r	4cc/	8re	.
8G 8AA\	.	8g 8c\	.
=38	=38	=38	=38
8r	4dd/	8re	.
8G 8BB\	.	8g 8d\	.
8r	4ddd/	8re	.
8g 8B\	.	8gg 8dd\	.
8r	4gg/	8re	.
!	!LO:TX:b:i:t=rit.	!	!
8e-X 8G 8C\	.	8cc 8g\	.
=39	=39	=39	=39
8r	4dd/	8re	.
8B-X 8Fn 8BB-X\	.	8fn 8d\	.
8r	(4b-X/	8re	.
8B- 8G-X 8E-X\	.	8g-X 8d-X\	>
8r	4ddn/	8re	.
8A#X 8F#X 8D\	.	8f#X 8c\	.
!!LO:LB:g=original
=40	=40	=40	=40
!	!LO:TX:b:i:t=a tempo	!	!
8r	4bn/)	8rc	.
8G 8D 8GG/	.	8g 8B\	.
8r	4bb/	8rc	.
8g 8d 8G\	.	8gg 8b\	p
8r	4d/	8r	.
8D 8FFn/	.	8B-X 8A-X\	.
=41	=41	=41	=41
!!LO:TX:a:i:t=poco animato
8r	4g/	8rc	.
8E-X 8BB-X 8EE-X/	.	8e-X 8B-X 8G\	.
8r	4gg/	8rc	.
8e-X 8B-X 8E-X\	.	8ee-X 8b-X 8g\	.
8r	4a-X/	8rc	.
8E- 8FFn/	.	8e- 8A-X\	.
=42	=42	=42	=42
8r	4b-X/	8re	.
8E-X 8GG/	.	8e-X 8B-X\	.
8r	4bb-X/	8re	.
8e-X 8G\	.	8ee-X 8b-X\	.
!!LO:TX:a:i:t=slentando
8r	(4ee-X/	8re	.
8c-X 8E- 8AA-X\	.	8fn 8e-\	.
=43	=43	=43	=43
8r	4b-X/)	8rc	.
8E-X 8GG/	.	8e-X 8B-X\	.
!!LO:TX:a:i:t=a tempo
8r	4bb-X/	8rc	.
8e-X 8c-X 8Fn\	.	8ee-X 8an\	.
!!LO:TX:a:i:t=slentando
8r	(4fn/	8r	.
8BB-X 8BBB-X/	.	8d 8A-X\	.
!!LO:PB:g=original
=44	=44	=44	=44
8r	4g/)	8rc	.
8BB-X 8EE-X/	.	8d 8G\	.
!!LO:TX:a:i:t=a tempo
8r	4gg/	8rc	.
8B-X 8E-X\	.	8dd 8g\	.
8r	4g/	8rc	.
8BB- 8EE-/	.	8d 8G\	.
=45	=45	=45	=45
8r	4g/	8rc	.
8BB-X 8EE-X/	.	8c#X 8G\	.
8r	4gg 4g/	8rc	.
8e-X 8B-X 8E-X\	.	8cc#X\	.
8r	4a 4A/	8re	.
8E- 8EE-/	.	8g 8c#X\	.
=46	=46	=46	=46
!	!	!	!LO:HP:a:t=accelerando e cresc. molto
8r	4bn 4Bn/	8r	<
8D 8DD/	.	8g 8d\	.
8r	4bb 4b/	8rc	.
8g 8d 8B\	.	8gg 8dd\	.
8r	4dd 4d/	8r	.
8C 8CC/	.	8a 8f#\	.
!!LO:LB:g=original
=47	=47	=47	=47
8r	4g 4G/	8rc	.
8BB 8BBB/	.	8fn 8d\	.
8r	4gg 4g/	8rc	.
8e 8d 8B-X\	.	8ee 8dd\	.
8r	4a 4A/	8re	.
8AA 8AAA/	.	8e 8c#X\	.
=48	=48	=48	=48
8r	4b 4B/	8re	.
8GG#X 8GGG#X/	.	8fn 8d\	.
8r	4bb 4b/	8r	.
8e#X 8d 8G#X\	.	8ee#X 8dd\	.
8r	4dd 4d/	8r	.
8GGn 8GGGn/	.	8b 8e#X\	.
=49	=49	=49	=49
!	!	!	!LO:HP:a:t=allarg. e cresc. sempre
8r	4b 4B/	8re	<
8FF# 8FFF#/	.	8f#X 8d\	.
8r	4bb 4b/	8rc	.
8g 8d 8B 8Fn\	.	8gg 8dd\	.
8r	4dd 4d/	8r	.
8EE 8EEE/	.	8b 8g#X\	.
!!LO:LB:g=original
=50	=50	=50	=50
!!LO:TX:a:i:t=allarg. molto
8r	4b 4B/	8re	.
8DD 8DDD/	.	8gn 8d\	.
8r	4bb 4b/	8r	.
8e 8B 8G 8C#X\	.	8gg 8ee\	.
8r	4dd 4d/	8r	.
8CCn 8CCCn/	.	8g 8e-X\	.
*	*v	*v	*
=51	=51	=51
*^	*	*
[2.G#X [<2.E [<2.BB/	2.BBB 2.BBBB\	[2.dd [2.g#X [>2.en [2.d/	ff
*v	*v	*	*
=52	=52	=52
4G#X] 4E] 4BB\]	4dd] 4g#X] 4e] 4d/]	.
!	!LO:TX:b:i:t=marcatissimo	!
4D\	4d/	.
4E\	4e/	.
=53	=53	=53
*^	*^	*
4F#/	2.D 2.AA\	4f#/	2.d 2.c\	.
4F#/	.	4f#/	.	.
4d/	.	4dd/	.	.
*v	*v	*	*	*
*	*v	*v	*
=54	=54	=54
2.B: 2.F#: 2.D: 2.GG#X:\	2.dd 2.b 2.f# 2.d/	ff
=55	=55	=55
*	*^	*
!!LO:TX:a:i:t=a tempo
!	!	!	!LO:DY:t=%s leggiero
8r	4dd/	8re	p
8Gn 8GGn'/	.	8b 8e#X 8d'\	.
8r	8b/L	8re	.
8F# 8FF#'/	8b/J	8f# 8d 8B'\	<
8r	4b/	8re	.
8Fn 8FFn'/	.	8g 8d#X 8B'\	[[
!!LO:LB:g=original
=56	=56	=56	=56
8r	4b/	8rc	.
8E 8EE/	.	8g 8e 8B\	.
!	!	!LO:TX:b:i:t=dim.-e-rall.:dur=5e:ext=s:problem:text with extention lines	!
8r	8g/L	8rc	.
8D#X 8DD#X/	8g/J	8f# 8B\	.
8r	4g/	8rc	.
8Dn 8DDn/	.	8fn 8B\	.
=57	=57	=57	=57
8r	4g/	8rA	.
8C 8CC/	.	8e 8c\	.
8r	8e/L	8r	.
8BB 8BBB/	8e/J	8d#X 8G\	.
8r	4e/	8r	.
8BB-X 8BBB-X/	.	8dn 8G\	.
=58	=58	=58	=58
!	!	!	!LO:DY:t=%s rall. sempre
8r	4dd/	8re	pp
8GL 8AA\	.	8eL 8c\	.
8A 8BBn\	8dd/L	8f# 8d\	.
8BJ 8C\	8dd/J	8gJ 8e\	.
8r	4dd/	8re	.
8c 8D\	.	8a 8f#\	.
=59	=59	=59	=59
*^	*	*	*
*ped	*	*	*	*
8B:: 8D:: 8GG::\	8ryy	8dd::/	8g:: 8d::\	.
8r	8ryy	8r	8ryy	.
4r	4ryy	4dd/	4ryy	.
!	!	!LO:TX:a:i:t=m.g.	!	!
8B:: 8D:: 8GG::\	8gg>::/	8ryy	8dd:: 8g:: 8d::\	.
8r	8ryy	8r	8ryy	.
*v	*v	*	*	*
*	*v	*v	*
=60	=60	=60
4GGG/	2.r	.
4r	.	.
*Xped	*	*
4r	.	.
==	==	==
*-	*-	*-
!!!system-decoration: {(g1)}
!!!RDF**kern: i = editorial accidental
!!!RDF**kern: > = above
!!!RDF**kern: < = below
!!!RDF**kern: N = linked
!!!RDF**dynam: > = "dim.", fontstyle= "italic"
!!!ENC: Anastazja Marusiak
!!!EED: Katarzyna Serwa
!!!END: 2023-10-23
!!!EEV: 2023-11-21
!!!YEM: Copyright © 2023 by [Copyright Holder]
